X:1
M:6/4
K:D
G/4A/4G/4A/4 B/2A/2|d/4B/4c/4B/4 B/2G/4B/4|B/2d/4A/4 B/2G/4A/4|\
G/2A/2 c/4B/4A/4F/4|E/2A/2 D::
d/2e/2|g/2e/4f/4 e/2g/2|e/4A/4B/4c/4 d/4B/4B/4A/4|\
B/2d/4c/4 e/4c/4A/4G/4|F/2A/2 B/2A/2|G ::
e/2f/2 g/2g/2|e/2d/2 d/2e/2|e/2d/2 d/2B/4A/4|G/2A/2 B/2c/4d/4|\
c/2A/2 G/2B/4c/4|d/2d/2 f/2d/4c/4|d3/2|
d/2c/2 B/2A/2|A/2A/2 c/2B/2|A2 G/2G/2|A/4B/4c/4d/4 f/2d/2|\
f3/4d/4 f/2a/2|g/2e/2 c/2A/2|A/2B/2 G:|